symbols/web/location_city/materialsymbolsoutlined/location_city_wght300grad200_48px.svg

<svg xmlns="http://www.w3.org/2000/svg" height="48" width="48"><path d="M6.4 43.1V13.15h11.65v-5.9l6-5.7L30 7.25v14.9h11.65V43.1Zm2.9-2.9h6.1v-6.1H9.3Zm0-9.05h6.1v-6.1H9.3Zm0-9h6.1v-6.1H9.3ZM20.95 40.2h6.15v-6.1h-6.15Zm0-9.05h6.15v-6.1h-6.15Zm0-9h6.15v-6.1h-6.15Zm0-9h6.15v-6.1h-6.15Zm11.7 27.05h6.1v-6.1h-6.1Zm0-9.05h6.1v-6.1h-6.1Z"/></svg>

<svg xmlns="http://www.w3.org/2000/svg" height="48" width="48"><path d="M6.4 43.1V13.15H18.05V7.25L24.05 1.55L30 7.25V22.15H41.65V43.1ZM9.3 40.2H15.4V34.1H9.3ZM9.3 31.15H15.4V25.05H9.3ZM9.3 22.15H15.4V16.05H9.3ZM20.95 40.2H27.1V34.1H20.95ZM20.95 31.15H27.1V25.05H20.95ZM20.95 22.15H27.1V16.05H20.95ZM20.95 13.15H27.1V7.05H20.95ZM32.65 40.2H38.75V34.1H32.65ZM32.65 31.15H38.75V25.05H32.65Z"/></svg>
